data/styles/clear/style-clear/symbols/car-repair-m.svg

<svg height="24" viewBox="0 0 24 24" width="24"><g fill="none" fill-rule="evenodd"><circle cx="12" cy="12" fill="#fff" opacity=".6" r="12"/><circle cx="12" cy="12" fill="#717065" r="11"/><path d="m7.74375 6-.24375 1.2h-.1125c-.78 0-1.3875.6075-1.3875 1.3875v2.2125.6.7875c0 .24.1725.4125.4125.4125h1.575c.24 0 .4125-.1725.4125-.4125v-.7875h7.2v.7875c0 .24.1725.4125.4125.4125h1.575c.24 0 .4125-.1725.4125-.4125v-.7875-.6-2.2125c0-.78-.6075-1.3875-1.3875-1.3875h-.1125l-.24375-1.2zm3.05625 1.2h2.4c.36 0 .6.3.6.6v1.2c0 .36-.3.6-.6.6h-2.4c-.3 0-.6-.3-.6-.6v-1.2c0-.36.3-.6.6-.6zm-3.1875 1.2h1.03125c.18 0 .35625.1725.35625.4125v.375c0 .24-.1725.4125-.4125.4125h-.975c-.24 0-.4125-.1725-.4125-.4125v-.375c0-.24.1725-.4125.4125-.4125zm7.8 0h1.03125c.18 0 .35625.1725.35625.4125v.375c0 .24-.1725.4125-.4125.4125h-1.03125c-.18 0-.35625-.1725-.35625-.4125v-.375c0-.24.1725-.4125.4125-.4125zm-9.4125 4.8v1.2h2.4v1.2h-1.2l1.8 2.4 1.8-2.4h-1.2v-1.2h4.8v1.2h-1.2l1.8 2.4 1.8-2.4h-1.2v-1.2h2.4v-1.2z" fill="#fff" fill-rule="nonzero"/></g></svg>

<svg width="24" height="24" viewBox="0 0 24 24">
  <g fill="none" fill-rule="evenodd">
    <circle cx="12" cy="12" r="12" fill="#FFF" opacity=".6"/>
    <circle cx="12" cy="12" r="11" fill="#717065"/>
    <path fill="#FFF" fill-rule="nonzero" d="M7.74375,6 L7.5,7.2 L7.3875,7.2 C6.6075,7.2 6,7.8075 6,8.5875 L6,10.8 L6,11.4 L6,12.1875 C6,12.4275 6.1725,12.6 6.4125,12.6 L7.9875,12.6 C8.2275,12.6 8.4,12.4275 8.4,12.1875 L8.4,11.4 L15.6,11.4 L15.6,12.1875 C15.6,12.4275 15.7725,12.6 16.0125,12.6 L17.5875,12.6 C17.8275,12.6 18,12.4275 18,12.1875 L18,11.4 L18,10.8 L18,8.5875 C18,7.8075 17.3925,7.2 16.6125,7.2 L16.5,7.2 L16.25625,6 L7.74375,6 Z M10.8,7.2 L13.2,7.2 C13.56,7.2 13.8,7.5 13.8,7.8 L13.8,9 C13.8,9.36 13.5,9.6 13.2,9.6 L10.8,9.6 C10.5,9.6 10.2,9.3 10.2,9 L10.2,7.8 C10.2,7.44 10.5,7.2 10.8,7.2 Z M7.6125,8.4 L8.64375,8.4 C8.82375,8.4 9,8.5725 9,8.8125 L9,9.1875 C9,9.4275 8.8275,9.6 8.5875,9.6 L7.6125,9.6 C7.3725,9.6 7.2,9.4275 7.2,9.1875 L7.2,8.8125 C7.2,8.5725 7.3725,8.4 7.6125,8.4 Z M15.4125,8.4 L16.44375,8.4 C16.62375,8.4 16.8,8.5725 16.8,8.8125 L16.8,9.1875 C16.8,9.4275 16.6275,9.6 16.3875,9.6 L15.35625,9.6 C15.17625,9.6 15,9.4275 15,9.1875 L15,8.8125 C15,8.5725 15.1725,8.4 15.4125,8.4 Z M6,13.2 L6,14.4 L8.4,14.4 L8.4,15.6 L7.2,15.6 L9,18 L10.8,15.6 L9.6,15.6 L9.6,14.4 L14.4,14.4 L14.4,15.6 L13.2,15.6 L15,18 L16.8,15.6 L15.6,15.6 L15.6,14.4 L18,14.4 L18,13.2 L6,13.2 Z"/>
  </g>
</svg>
